svg/icons/src/icon-tracking.svg

<?xml version="1.0" encoding="UTF-8"?>
<svg width="32px" height="32px" viewBox="0 0 32 32" version="1.1" xmlns="http://www.w3.org/2000/svg" xmlns:xlink="http://www.w3.org/1999/xlink">
    <!-- Generator: Sketch 52.5 (67469) - http://www.bohemiancoding.com/sketch -->
    <title>icon-tracking</title>
    <desc>Created with Sketch.</desc>
    <defs>
        <path d="M8,4 L24,4 C26.209139,4 28,5.790861 28,8 L28,24 C28,26.209139 26.209139,28 24,28 L8,28 C5.790861,28 4,26.209139 4,24 L4,8 C4,5.790861 5.790861,4 8,4 Z M7,18 C6.44771525,18 6,18.4477153 6,19 C6,19.5522847 6.44771525,20 7,20 C8.80178934,20 9.59100044,19.0525129 10.8931355,16.4470498 C11.8399703,14.5525129 12.3001869,14 12.9972529,14 C13.6954126,14 14.1559442,14.5525114 15.1035529,16.4472949 C16.4064593,19.0525114 17.1962139,20 18.9986264,20 C20.8010389,20 21.5907935,19.0525114 22.8936995,16.4472955 C23.8413083,14.5525114 24.3018398,14 25,14 C25.5522847,14 26,13.5522847 26,13 C26,12.4477153 25.5522847,12 25,12 C23.1975875,12 22.4078329,12.9474886 21.1049269,15.5527046 C20.1573182,17.4474886 19.6967866,18 18.9986264,18 C18.3004661,18 17.8399345,17.4474885 16.8923253,15.5527039 C15.5894194,12.9474885 14.7996649,12 12.9972529,12 C11.1954636,12 10.4062525,12.9474871 9.10411736,15.5529502 C8.15728262,17.4474871 7.69706603,18 7,18 Z" id="path-1"></path>
    </defs>
    <g id="icon-tracking" stroke="none" stroke-width="1" fill="none" fill-rule="evenodd">
        <mask id="mask-2" fill="white">
            <use xlink:href="#path-1"></use>
        </mask>
        <use id="Mask" fill="#2333FF" xlink:href="#path-1"></use>
    </g>
</svg>

<svg height="32" width="32" xmlns="http://www.w3.org/2000/svg"><path d="M8 4h16a4 4 0 0 1 4 4v16a4 4 0 0 1-4 4H8a4 4 0 0 1-4-4V8a4 4 0 0 1 4-4zM7 18a1 1 0 0 0 0 2c1.802 0 2.591-.947 3.893-3.553C11.84 14.553 12.3 14 12.997 14c.698 0 1.159.553 2.107 2.447C16.406 19.053 17.196 20 18.999 20c1.802 0 2.592-.947 3.895-3.553C23.84 14.553 24.302 14 25 14a1 1 0 0 0 0-2c-1.802 0-2.592.947-3.895 3.553C20.157 17.447 19.697 18 18.999 18c-.699 0-1.16-.553-2.107-2.447C15.59 12.947 14.8 12 12.997 12c-1.802 0-2.59.947-3.893 3.553C8.157 17.447 7.697 18 7 18z" fill="#2333ff" fill-rule="evenodd"/></svg>
